X: 1
T: Thunderhead
R: jig
M: 6/8
L: 1/8
K: Bmin
|~B3 fBB|eBB dBA|~B3 fgf|edB ABd|
|~B3 fBB|eBB def|gfe ~f3|edB ABd:|
|:afd edB|ABd c2c|Bcc Bcc|
dcB ~c3|afd edB|ABd c2c|
(3Bcd B c2a|1gec dfg:|2gec dc=c||


Tune 732	Setting 27801

